X:265
T: Slipping Slates
S: "The Piper's Dream"
C: Pat McNulty
Z: B.Black
L: 1/8
M: 6/8
R: jig
K: G
G/A/ | BcA BGE | FAB AFD | DGG FAc | BdG F2 A |
BcA BGE | FAB AFD | EGc BdG | FEF G2 :|
d | gfg dBG | FAd FAd | gfg bge | fga dfa |
gfg dBG | FAd FAd | EGc BdG | FEF G2 :|
